!!!!SEGMENT: pl-sa--228-a-vi-32--003_luna-georgius--litania-ex-d-pater-de-caelis.krn
!!!cenid: 17xx:448
!!!COM: Luna, Georgius
!!!COM-rismid: pe41010079
!!!CDT:
!!!CNT:
!!!OPR: Litania ex D
!!!OTL: Pater de caelis
!!!OMV: 003
!!!PDT:
!!!AGN: Sacred; Mass
!!!SMS-siglum: PL-SA
!!!SMS-shelfmark: 228/A VI 32
!!!SMS-shelfwork: 001-003 M
!!!SMS-variant: Violino Primo: PL-SA 228/A VI 32:11
!!!SMS-altvar: Violino Imo: PL-SA 228/A VI 32:29
!!!NIFC-rismid: 1001068968
!!!URL-scan: http://bc.bdsandomierz.pl/dlibra/publication/1604/edition/1572/content
!!!ONB-nifc: UWAGA: części Litanii: Sinfonia, Kyrie, Pater de caelis, Sancta trinitas, Sancta Maria, Mater Christi, Mater amabilis, Virgo prudentissima, Speculum iustitiae, Rosa mistica, Salus infirmorum, Regina angelorum, Agnus Dei
**kern	**dynam	**kern	**kern	**kern	**kern	**text	**kern	**kern
*part7	*part7	*part6	*part5	*part4	*part3	*part3	*part2	*part1
*	*	*group3	*group3	*group2	*group2	*	*group1	*group1
*staff7	*	*staff6	*staff5	*staff4	*staff3	*staff3	*staff2	*staff1
*I"Fondamemto	*	*I"Violino Secundo	*I"Violino Primo	*I"Tenore	*I"Canto	*	*I"Clarino Socundo	*I"Clarino Primo
*I'org	*	*I'vl II	*I'vl I	*I'T	*I'C	*	*I'clno II	*I'clno I
*clefF4	*	*clefG2	*clefG2	*clefC4	*clefC1	*	*clefG2	*clefG2
*	*	*	*	*	*	*	*ITrd-1c-2	*ITrd-1c-2
*k[f#c#]	*	*k[f#c#]	*k[f#c#]	*k[f#c#]	*k[f#c#]	*	*k[f#c#]	*k[f#c#]
*D:	*	*D:	*D:	*D:	*D:	*	*D:	*D:
*M3/4	*	*M3/4	*M3/4	*M3/4	*M3/4	*	*M3/4	*M3/4
=1	=1	=1	=1	=1	=1	=1	=1	=1
!LO:TX:a:t=Solo	!	!	!	!	!LO:TX:a:t=P:problem:znaki przy kluczu [cc# f#]	!	!	!
!LO:TX:a:B:t=andante	!	!LO:TX:a:t=P:problem:brak oznaczenia tempa i nazwy części	!LO:TX:a:B:t=andante	!LO:TX:a:B:t=Pater de Celis Tacet:problem:napis nieczytelny [przyjęto zgodnie z clno I]	!LO:TX:a:t=andante	!	!LO:TX:a:B:t=Pater de Celis Tacet	!LO:TX:a:B:t=Pater de Celis Tacet
!	!	!LO:N:vis=00	!LO:N:vis=00	!	!	!	!	!
4D/	.	0.r	0.r	2.ryy	4dd\	Pa-	2.ryy	2.ryy
4d\	.	.	.	.	8ff#\L	-ter	.	.
.	.	.	.	.	8dd\J	.	.	.
4A\	.	.	.	.	8ee\L	de	.	.
.	.	.	.	.	8cc#\J	.	.	.
=2	=2	=2	=2	=2	=2	=2	=2	=2
!	!	!	!	!	!LO:SIC:l:s=cae-:v	!	!	!
4D\	.	.	.	2.ryy	8dd\L	Ce-	2.ryy	2.ryy
.	.	.	.	.	16cc#\L	.	.	.
.	.	.	.	.	16b\JJ	.	.	.
4F#\	.	.	.	.	4a\	-lis	.	.
4G\	.	.	.	.	4b\	de	.	.
=3	=3	=3	=3	=3	=3	=3	=3	=3
!	!	!	!	!	!LO:SIC:l:s=cae-:v	!	!	!
.	.	.	.	.	8qqa/	.	.	.
4E\	.	.	.	2.ryy	8g\	Ce-	2.ryy	2.ryy
.	.	.	.	.	8f#/	-lis	.	.
.	.	.	.	.	8qqa/	.	.	.
*	*	*	*	*	*2\right	*	*	*
!	!	!	!	!	!LO:TX:a:t=P:problem:niejednoznaczny zapis ozdobnika [przyjęto mordent]:global	!	!	!
4C#/	.	.	.	.	2gM\	De-	.	.
4AA/	.	.	.	.	.	.	.	.
=4	=4	=4	=4	=4	=4	=4	=4	=4
4D\	.	.	.	2.ryy	4f#/	-us	2.ryy	2.ryy
4F#\	.	.	.	.	4ee\	mi-	.	.
4A\	.	.	.	.	4ee\	-se-	.	.
=5	=5	=5	=5	=5	=5	=5	=5	=5
8d\L	.	2.r	2.r	2.ryy	8ff#\	-re-	2.ryy	2.ryy
8G\J	.	.	.	.	16ee\LL	-re	.	.
.	.	.	.	.	16dd\JJ	.	.	.
4A\	.	.	.	.	2cc#\	no-	.	.
4AA/	.	.	.	.	.	.	.	.
!	!	!	!	!	!LO:LB:g=original	!	!	!
=6	=6	=6	=6	=6	=6	=6	=6	=6
!	!LO:DY:a	!	!	!	!	!	!	!
4D\	f	8r	8r	2.ryy	4dd\	-bis	2.ryy	2.ryy
.	.	8aa\	8aa\	.	.	.	.	.
4F#\	.	16aa\LL	16aa\LL	.	4r	.	.	.
.	.	16gg\	16gg\	.	.	.	.	.
.	.	16ff#\	16ff#\	.	.	.	.	.
.	.	16ee\JJ	16ee\JJ	.	.	.	.	.
4D\	.	16dd\LL	16dd\LL	.	4r	.	.	.
.	.	16ccn\	16ccn\	.	.	.	.	.
.	.	16b\	16b\	.	.	.	.	.
.	.	16a\JJ	16a\JJ	.	.	.	.	.
=7	=7	=7	=7	=7	=7	=7	=7	=7
!	!	!LO:TX:a:t=P:problem:mixed beam	!LO:TX:a:t=P:problem:mixed beam	!	!LO:N:vis=0	!	!	!
4G\	.	8b/L	8b/L	2.ryy	1.r	.	2.ryy	2.ryy
.	.	8bb\J	8bb\J	.	.	.	.	.
4G\	.	16bb\LL	16bb\LL	.	.	.	.	.
.	.	16aa\	16aa\	.	.	.	.	.
.	.	16gg\	16gg\	.	.	.	.	.
.	.	16ff#\JJ	16ff#\JJ	.	.	.	.	.
4E\	.	16ee\LL	16ee\LL	.	.	.	.	.
.	.	16dd\	16dd\	.	.	.	.	.
.	.	16cc#X\	16cc#X\	.	.	.	.	.
.	.	16b\JJ	16b\JJ	.	.	.	.	.
=8	=8	=8	=8	=8	=8	=8	=8	=8
4A\	.	8a/	8a/	2.ryy	.	.	2.ryy	2.ryy
.	.	4gg\	4bb\	.	.	.	.	.
4C#/	.	.	.	.	.	.	.	.
.	.	4ff#\	4aa\	.	.	.	.	.
4AA/	.	.	.	.	.	.	.	.
.	.	8ee\	8gg\	.	.	.	.	.
=9	=9	=9	=9	=9	=9	=9	=9	=9
4D\	.	8ff#\L	8ff#\L	2.ryy	2.r	.	2.ryy	2.ryy
.	.	8dd\J	8dd\J	.	.	.	.	.
4A\	.	4a/	4a/	.	.	.	.	.
!	!	!LO:TX:a:t=P:problem:niejednoznaczny zapis ozdobnika [przyjęto mordent]&colon;global	!	!	!	!	!	!
4AA/	.	4cc#m\	4cc#\	.	.	.	.	.
=10	=10	=10	=10	=10	=10	=10	=10	=10
!	!LO:DY:a:rj	!	!	!	!	!	!	!
4D/	p	4dd\	4dd\	2.ryy	4dd\	Fi-	2.ryy	2.ryy
4d\	.	4r	4r	.	(8ff#\L	-li	.	.
.	.	.	.	.	8dd\J)	.	.	.
4A\	.	4r	4r	.	(8ee\L	Re-	.	.
.	.	.	.	.	8cc#\J)	.	.	.
=11	=11	=11	=11	=11	=11	=11	=11	=11
!	!	!LO:N:vis=00	!LO:N:vis=00	!	!	!	!	!
4D\	.	0.r	0.r	2.ryy	8dd\L	-dem-	2.ryy	2.ryy
.	.	.	.	.	16cc#\L	.	.	.
.	.	.	.	.	16b\JJ	.	.	.
4F#\	.	.	.	.	4a\	-ptor	.	.
4G\	.	.	.	.	4b\	mun-	.	.
=12	=12	=12	=12	=12	=12	=12	=12	=12
4E\	.	.	.	2.ryy	8g/	.	2.ryy	2.ryy
.	.	.	.	.	8f#/	-di	.	.
4C#/	.	.	.	.	2g/	De-	.	.
4AA/	.	.	.	.	.	.	.	.
=13	=13	=13	=13	=13	=13	=13	=13	=13
4D\	.	.	.	2.ryy	4f#/	-us	2.ryy	2.ryy
4F#\	.	.	.	.	4r	.	.	.
4D\	.	.	.	.	8ff#\	mi-	.	.
.	.	.	.	.	16ee\LL	-se-	.	.
.	.	.	.	.	16dd\JJ	.	.	.
=14	=14	=14	=14	=14	=14	=14	=14	=14
4C#/	.	.	.	2.ryy	8ee\	-re-	2.ryy	2.ryy
.	.	.	.	.	8cc#\	-re	.	.
4BB/	.	.	.	.	4dd\	mi-	.	.
4E\	.	.	.	.	4dd\	-se-	.	.
=15	=15	=15	=15	=15	=15	=15	=15	=15
!	!	!LO:N:vis=0	!LO:N:vis=0	!	!	!	!	!
4AA/	.	1.r	1.r	2.ryy	4dd\	-re-	2.ryy	2.ryy
4C#/	.	.	.	.	4cc#\	-re	.	.
4AA/	.	.	.	.	8ee\	mi-	.	.
.	.	.	.	.	8ee\	-se-	.	.
=16	=16	=16	=16	=16	=16	=16	=16	=16
4D\	.	.	.	2.ryy	16ff#\LL	-re-	2.ryy	2.ryy
.	.	.	.	.	16dd\JJ	.	.	.
.	.	.	.	.	16cc#\LL	-re	.	.
.	.	.	.	.	16b\JJ	.	.	.
!	!	!	!	!	!LO:LB:g=original	!	!	!
4E\	.	.	.	.	4a\	no-	.	.
4EE/	.	.	.	.	4bM\	.	.	.
!LO:LB:g=original	!	!	!	!	!	!	!	!
=17	=17	=17	=17	=17	=17	=17	=17	=17
4AA/	.	8r	8r	2.ryy	4a\	-bis	2.ryy	2.ryy
.	.	8ee\	8ee\	.	.	.	.	.
4C#/	.	16ee\LL	16ee\LL	.	4r	.	.	.
.	.	16dd\	16dd\	.	.	.	.	.
.	.	16cc#\	16cc#\	.	.	.	.	.
.	.	16b\JJ	16b\JJ	.	.	.	.	.
4AA/	.	16a/LL	16a/LL	.	4r	.	.	.
.	.	16gn/	16gn/	.	.	.	.	.
.	.	16f#/	16f#/	.	.	.	.	.
.	.	16e/JJ	16e/JJ	.	.	.	.	.
=18	=18	=18	=18	=18	=18	=18	=18	=18
!	!	!LO:TX:a:t=P:problem:mixed beam	!LO:TX:a:t=P:problem:mixed beam	!	!LO:N:vis=0	!	!	!
4D\	.	8f#/L	8f#/L	2.ryy	1.r	.	2.ryy	2.ryy
.	.	8ff#\J	8ff#\J	.	.	.	.	.
4D\	.	16ff#\LL	16ff#\LL	.	.	.	.	.
.	.	16ee\	16ee\	.	.	.	.	.
.	.	16dd\	16dd\	.	.	.	.	.
.	.	16cc#\JJ	16cc#\JJ	.	.	.	.	.
4BB/	.	16b/LL	16b/LL	.	.	.	.	.
.	.	16a/	16a/	.	.	.	.	.
.	.	16g#X/	16g#X/	.	.	.	.	.
.	.	16f#/JJ	16f#/JJ	.	.	.	.	.
!	!	!LO:LB:g=original	!LO:LB:g=original	!	!	!	!	!
=19	=19	=19	=19	=19	=19	=19	=19	=19
4E\	.	8e/	8e/	2.ryy	.	.	2.ryy	2.ryy
.	.	4dd\	4ff#\	.	.	.	.	.
4G#X\	.	.	.	.	.	.	.	.
.	.	4cc#\	4ee\	.	.	.	.	.
4E\	.	.	.	.	.	.	.	.
.	.	8b\	8dd\	.	.	.	.	.
=20	=20	=20	=20	=20	=20	=20	=20	=20
4A\	.	8cc#\L	8cc#\L	2.ryy	2.r	.	2.ryy	2.ryy
.	.	8a\J	8a\J	.	.	.	.	.
4E\	.	4e/	4e/	.	.	.	.	.
4EE/	.	4g#X/	4g#X/	.	.	.	.	.
=21	=21	=21	=21	=21	=21	=21	=21	=21
!	!LO:DY:a	!	!	!	!	!	!	!
4AA/	p	4a/	4a/	2.ryy	4r	.	2.ryy	2.ryy
4A\	.	4r	4r	.	4cc#\	Spi-	.	.
4A\	.	4r	4r	.	8cc#\	-ri-	.	.
.	.	.	.	.	8dd\	-tu	.	.
=22	=22	=22	=22	=22	=22	=22	=22	=22
!	!	!LO:N:vis=00	!LO:N:vis=00	!	!	!	!	!
4A\	.	0.r	0.r	2.ryy	8ee\	San-	2.ryy	2.ryy
.	.	.	.	.	8gn/	-cte	.	.
4AA/	.	.	.	.	2g/	De-	.	.
4AA/	.	.	.	.	.	.	.	.
=23	=23	=23	=23	=23	=23	=23	=23	=23
4D\	.	.	.	2.ryy	4f#/	-us	2.ryy	2.ryy
4F#\	.	.	.	.	8a\L	mi-	.	.
.	.	.	.	.	16b\L	.	.	.
.	.	.	.	.	16ccn\JJ	.	.	.
4D\	.	.	.	.	8dd\L	-se-	.	.
.	.	.	.	.	8cc\J	.	.	.
=24	=24	=24	=24	=24	=24	=24	=24	=24
!	!	!	!	!	!LO:SIC:s=8ccn:v	!	!	!
4G\	.	.	.	2.ryy	8cc#\	-re-	2.ryy	2.ryy
.	.	.	.	.	8b\	-re	.	.
4G#X\	.	.	.	.	8b\L	mi-	.	.
.	.	.	.	.	16cc#X\L	.	.	.
.	.	.	.	.	16dd\JJ	.	.	.
4E\	.	.	.	.	8ee\L	-se-	.	.
.	.	.	.	.	8dd\J	.	.	.
=25	=25	=25	=25	=25	=25	=25	=25	=25
4A\	.	.	.	2.ryy	8dd\	-re-	2.ryy	2.ryy
.	.	.	.	.	8cc#\	-re	.	.
4C#X/	.	.	.	.	8ee\L	mi-	.	.
.	.	.	.	.	8ff#\J	.	.	.
!	!	!	!	!	!LO:LB:g=original	!	!	!
4AA/	.	.	.	.	8gg\L	-se-	.	.
.	.	.	.	.	16ff#\L	.	.	.
.	.	.	.	.	16ee\JJ	.	.	.
=26	=26	=26	=26	=26	=26	=26	=26	=26
4D\	.	2.r	2.r	2.ryy	8ff#\	-re-	2.ryy	2.ryy
.	.	.	.	.	16ee\LL	-re	.	.
.	.	.	.	.	16dd\JJ	.	.	.
.	.	.	.	.	8qqdd/	.	.	.
4A\	.	.	.	.	2cc#\	no-	.	.
4AA/	.	.	.	.	.	.	.	.
=27	=27	=27	=27	=27	=27	=27	=27	=27
!	!LO:DY:a:rj	!	!	!	!	!	!	!
4D\	f	4dd\	4dd\	2.ryy	4dd\	-bis	2.ryy	2.ryy
4d\	.	(8ff#\L	(8ff#\L	.	4r	.	.	.
.	.	8dd\)	8dd\)	.	.	.	.	.
4A\	.	(8ee\	(8ee\	.	4r	.	.	.
.	.	8cc#\J)	8cc#\J)	.	.	.	.	.
=28	=28	=28	=28	=28	=28	=28	=28	=28
!	!	!	!	!	!LO:N:vis=00	!	!	!
4D\	.	8dd\L	8dd\L	2.ryy	0.r	.	2.ryy	2.ryy
.	.	(16cc#\L	16cc#\L	.	.	.	.	.
.	.	16b\JJ)	16b\JJ	.	.	.	.	.
4F#\	.	4a/	4a/	.	.	.	.	.
4G\	.	4b/	4b/	.	.	.	.	.
=29	=29	=29	=29	=29	=29	=29	=29	=29
.	.	8qqa/	8qqa/	.	.	.	.	.
4E\	.	8g/L	8g/L	2.ryy	.	.	2.ryy	2.ryy
.	.	8f#/J	8f#/J	.	.	.	.	.
!	!	!	!LO:TX:a:t=P:problem:niejednoznaczny zapis ozdobnika [przyjęto mordent]&colon;global	!	!	!	!	!
4C#/	.	2g/	2gM/	.	.	.	.	.
4AA/	.	.	.	.	.	.	.	.
=30	=30	=30	=30	=30	=30	=30	=30	=30
!	!	!LO:TX:a:t=P:problem:mixed beam	!LO:TX:a:t=P:problem:mixed beam	!	!	!	!	!
4D\	.	8f#/L	8f#/L	2.ryy	.	.	2.ryy	2.ryy
.	.	8aa\J	8aa\J	.	.	.	.	.
4F#\	.	16aa\LL	16aa\LL	.	.	.	.	.
.	.	16gg\	16gg\	.	.	.	.	.
.	.	16ff#\	16ff#\	.	.	.	.	.
.	.	16ee\JJ	16ee\JJ	.	.	.	.	.
4D\	.	16dd\LL	16dd\LL	.	.	.	.	.
.	.	16ccn\	16ccn\	.	.	.	.	.
.	.	16b\	16b\	.	.	.	.	.
.	.	16a\JJ	16a\JJ	.	.	.	.	.
=31	=31	=31	=31	=31	=31	=31	=31	=31
!	!	!LO:TX:a:t=P:problem:mixed beam	!LO:TX:a:t=P:problem:mixed beam	!	!	!	!	!
4GG/	.	8b/L	8b/L	2.ryy	.	.	2.ryy	2.ryy
.	.	8bb\J	8bb\J	.	.	.	.	.
4G\	.	16bb\LL	16bb\LL	.	.	.	.	.
.	.	16aa\	16aa\	.	.	.	.	.
.	.	16gg\	16gg\	.	.	.	.	.
.	.	16ff#\JJ	16ff#\JJ	.	.	.	.	.
4E\	.	16ee\LL	16ee\LL	.	.	.	.	.
.	.	16dd\	16dd\	.	.	.	.	.
.	.	16cc#\	16cc#\	.	.	.	.	.
.	.	16b\JJ	16b\JJ	.	.	.	.	.
=32	=32	=32	=32	=32	=32	=32	=32	=32
!	!	!	!	!	!LO:N:vis=0	!	!	!
4A\	.	8a/	8a/	2.ryy	1.r	.	2.ryy	2.ryy
.	.	4gg\	4bb\	.	.	.	.	.
4C#/	.	.	.	.	.	.	.	.
.	.	4ff#\	4aa\	.	.	.	.	.
4AA/	.	.	.	.	.	.	.	.
.	.	8ee\	8gg\	.	.	.	.	.
!LO:LB:g=original	!	!	!LO:LB:g=original	!	!	!	!	!
=33	=33	=33	=33	=33	=33	=33	=33	=33
4D\	.	8ff#\L	8ff#\L	2.ryy	.	.	2.ryy	2.ryy
.	.	8dd\J	8dd\J	.	.	.	.	.
4A\	.	4a/	4a/	.	.	.	.	.
4AA/	.	4cc#m\	4cc#\	.	.	.	.	.
=34	=34	=34	=34	=34	=34	=34	=34	=34
*2\right	*	*	*	*	*	*	*	*
2D\	.	4dd\	4dd\	2.ryy	2.r	.	2.ryy	2.ryy
.	.	4d/	4d/	.	.	.	.	.
4r	.	4r	4r	.	.	.	.	.
==;	==	==	==;	==	==	==	==	==
*-	*-	*-	*-	*-	*-	*-	*-	*-
!!!system-decoration: !!!system-decoration: [g1][g2][g3]s7
!!!ENC: Marta Lawrence
!!!END: 2020-10-14
!!!ENC: Andrzej Kubiczek
!!!END: 2020-05-23
